X: 35692
T: Saint Anne's
R: reel
M: 4/4
K: Dmajor
f2 fg fedB|A2 FA DAFA|B2 GB DBGB|A2 FA DAFA|
f2 fg fedB|A2 FA DAFA|Beed cABc|eddc d2- d2|
f2 fg fedB|A2 FA DAFA|_B2 =FB DBFB|A2 FA DAFA|
f2 fg fedB|A2 FA DAFA|Beed cABc|eddc defg|
|:fgfe defg|agda gdBd|Aceg a2 bc'-|c'c'bc' bage|
fgfe defg|agda gdBd|Acef g2 ag-|gecd ed d2:|

